X: 144
T: Whelan's
R: jig
M: 6/8
L: 1/8
K:Edor
"Em"~E3 BAF|"D"F2B AFD|"Em"~E3 BAF|"D"dAF FED|
"Em"~E3 BAF|"D"F2B AFA|"G"B/c/dB BAF|"D"dAF FED:|
|: "Em"Bcd ~e3|"D"fed "Em"e2d|~B3 ~g3|"Bm"fdB "D"AFA|
"Em"Bcd ~e3|"D"fed "Em"e2f|"G"gbg "D"faf|1"Em"edB "D"AFA:|2"Em"edB "D"AFA|]


